X:1
T:Vaga pur
T:Vaga pur
T:Giovanni Ghizzolo
C:Giovanni Ghizzolo
%%score 1 { 2 | 3 }
L:1/8
Q:1/4=120
M:4/4
K:C
V:1 treble nm="Soprano" snm="S"
V:2 treble nm="MusicXML Part"
V:3 bass 
V:1
"^Source: Madrigali et Arie---Libro terzo---Venetia---.Raverij---1609.\nEditor André Vierendeels (04/10/08)\nContinuo: André Vierendeels." e2 dd c3 d | %1
w: Va- ga pur di fe-|
 B2 B2"^MADRIGALE" z2 d2- | d6 AA | A8 | G4 z2 e2- | e2 A2 BA Bc | d4 d2 G2 | AG AB cB cd | e6 ed | %9
w: ri- re a-|* ni- ma|cru-|da poi|_ che'l cor _ an- *|ci- so con|mil _ le _ stra- * li _|m'hai del _|
 c2 dc B4 | A8 :| z4 d4- | d2 AA A4- | AccB d4- | d6 e2 | c3 d/e/ B4 | z2 d4 c>B | BABB cd e2- | %18
w: tuo be _ vi-|so.|Il|_ tuo fe- del|_ a no- vo pia-|* ghe|sfi- * * di|Ed a pas-|sa- ti dan- ni de be- gl'oc-|
 e2 dc d2 d2 | ff f4 e>d | d>c c4 Bc | ^G4 A4 | z2 d2 d2 B2 | A3 G G4 | G3 e e4- | e2 c2 B3 A | %26
w: * chi'o- mi- ci- di|no- ve pen ag- gion|gen- d'e no- vi'af- *|fan- ni|da ques- to|cor- po'e san-|gue ne ca|_ v'il vi- vo|
 A4 A4 | z4 B4- | B4 cc c2- | c2 d2 A4 | G2 dB e2 ^cA | A2 d2 d4- | d6"^-natural" F2 | E8 | %34
w: san- gue|O|_ cru- del- ta|_ d'A- mo-|e ques- te mem- bra fe-|rir se mor-|* to'el|co-|
 D4 z2 e2 | e8- | e2"^-natural" c2 B4 | A8 |] %38
w: re, se|mor-|* to'el co-|re.|
V:2
 [EGc]4 [EA]4 | [DG]8 | [FA]4 [EA]4 | [DG]4 [D^F]4 | [B,DG]4 [CE]4- | [CE]2 [DA]2 [D-GB-]4 | %6
 [DGB]6 [CEG]2 | [FAc]8 | [EGc]8 | [EA]4 [E^G]4 | [^CE]8 :| [DG]8 | [EA]4 [D^F]4 | [Gc]4 [DA]4 | %14
 [DB]4 [Gc]4 | [Fc]4 [GB]4 | [D-GB-]8 | [DGB]4 [EGc]4 | [FAc]2 [Gc]4 [GB]2 | [FA]4 [DG]4 | %20
 [CG]4 [^FA]4 | [EB]4 [D^FA]4 | [DGB]8 | [DG]2 [D^F]2 [D-GB-]4 | [DGB]4 [EA]4- | [EA]6 [E^G]2 | %26
 [EAc]8 | [DGB]8 | [EAc]8 | [DG]4 [^FA]4 | [DGB]4 [DA]4 | [D^F]4 [DG]4 | [DA]4 [DG]4 | %33
 [^CEA]8"^Notes: Original keys: Ut 1st, Fa 4rth\n            Editorial accidentals above the staff" | %34
 [^FA]4 [EA]4 | [EB]4 [Ec]4 | [EAc]4 [E^Ge]4 | [EA^c]8 |] %38
V:3
 C2 B,B, A,2 A,2 | G,4 B,,2 A,,G,, | D,4 ^C,4 | D,8 | G,,4 C,3 D, | E,2 ^F,2 G,4 | G,6 E,2 | %7
 F,2 G,2 A,2 B,2 | C2 E,2 F,2 G,2 | A,2 A,,2 E,4 | A,,8 :| B,,8 | ^C,4 D,4 | E,4 ^F,4 | G,4 E,4 | %15
 A,4 G,4 | G,,8 | G,4 C,4 | F,2 E,2 G,4 | D,4 G,4 | E,4 D,4 | E,4 D,4 | G,,4 B,,2 C,2 | D,4 G,,4 | %24
 G,,4 A,,2 B,,2 | C,2 D,2 E,4 | A,,8 | G,,8 | A,,8 | B,,4 D,4 | G,,2 G,3 E, A,2 | D,4 B,,4 | %32
 ^F,,4 G,,4 | A,,8 | D,4 ^C,4 | ^G,,4 A,,4 | E,8 | A,,8 |] %38

